hosted_logos/ura.svg

<?xml version="1.0" encoding="UTF-8" standalone="no"?>
<svg
   width="110.13728"
   height="38.847801"
   viewBox="0 0 110.13728 38.847801"
   fill="none"
   class="lg:h-12 h-8 w-[42px] absolute left-0 top-0 z-10 logo-svg"
   data-astro-cid-3ef6ksr2=""
   version="1.1"
   id="svg3"
   sodipodi:docname="ura.svg"
   inkscape:version="1.4.3 (0d15f75, 2025-12-25)"
   xmlns:inkscape="http://www.inkscape.org/namespaces/inkscape"
   xmlns:sodipodi="http://sodipodi.sourceforge.net/DTD/sodipodi-0.dtd"
   xmlns="http://www.w3.org/2000/svg"
   xmlns:svg="http://www.w3.org/2000/svg">
  <defs
     id="defs3" />
  <sodipodi:namedview
     id="namedview3"
     pagecolor="#ffffff"
     bordercolor="#000000"
     borderopacity="0.25"
     inkscape:showpageshadow="2"
     inkscape:pageopacity="0.0"
     inkscape:pagecheckerboard="0"
     inkscape:deskcolor="#d1d1d1"
     inkscape:zoom="0.66666667"
     inkscape:cx="20.25"
     inkscape:cy="18.75"
     inkscape:current-layer="svg3" />
  <path
     d="m 61.0852,34.0347 c 4.0947,0 5.3309,-0.6181 7.5714,-3.3994 0,1.6215 1.3144,2.9359 2.9358,2.9359 h 2.9358 V 8.92572 H 68.3475 V 22.6777 c 0,4.0175 -2.086,6.3352 -5.3308,6.3352 -3.0131,0 -4.172,-1.6997 -4.172,-5.0218 V 8.92572 H 52.6641 V 25.2272 c 0.0772,5.949 2.8585,8.8075 8.4211,8.8075 z"
     class="logo-path"
     data-astro-cid-3ef6ksr2=""
     id="path4"
     style="fill:#000000" />
  <path
     d="m 92.2982,8.4635 h -1.4967 c -3.3993,0 -5.906,1.7719 -6.9103,4.5532 V 8.92204 H 78.0195 V 27.3868 c 0,3.4135 2.7672,6.1807 6.1807,6.1807 V 20.279 c 0,-5.1796 2.3953,-6.7987 6.0836,-6.7987 z"
     class="logo-path"
     data-astro-cid-3ef6ksr2=""
     id="path5"
     style="fill:#000000" />
  <path
     d="m 99.2455,8.46326 -3.9859,-1.3e-4 -2.0219,5.01237 c 0,0 10.7943,-1.1785 10.7943,2.839 v 0.5408 c -0.077,1.1589 -0.849,1.7769 -3.167,1.9314 l -4.2494,0.4636 c -6.1807,0.4636 -8.4984,3.4766 -8.4984,7.2623 0,4.5582 3.0903,7.4941 8.8847,7.4941 4.0171,0 5.7171,-0.4636 7.0301,-2.9358 0.078,-0.0773 0.155,-0.2318 0.232,-0.3863 0,1.5787 1.28,2.8585 2.859,2.8585 h 3.013 v -16.147 c 0.077,-5.0218 -3.319,-8.85558 -10.8905,-8.93284 z m 4.7865,14.72724 c 0,3.5539 -2.163,6.4897 -5.9485,6.4897 -3.1676,0 -4.5582,-1.4679 -4.5582,-3.7084 0,-1.777 1.2361,-3.0904 4.3265,-3.3221 l 2.9362,-0.2318 c 1.699,-0.1545 2.781,-0.4636 3.244,-0.9271 z"
     class="logo-path"
     data-astro-cid-3ef6ksr2=""
     id="path6"
     style="fill:#000000" />
  <path
     d="M 9.62587,38.8478 16.6734,19.0802 c -5.9302,0.7735 -11.34483,3.2659 -15.899962,7.0476 1.117292,5.2427 4.383242,9.7119 8.852432,12.72 z"
     class="logo-path"
     data-astro-cid-3ef6ksr2=""
     id="path1"
     style="fill:#000000" />
  <path
     d="m 32.2292,38.8478 c 4.5551,-2.8363 7.8211,-7.3914 9.0243,-12.72 -4.5551,-3.9535 -9.9697,-6.446 -15.9,-7.0476 z"
     class="logo-path"
     data-astro-cid-3ef6ksr2=""
     id="path2"
     style="fill:#000000" />
  <path
     d="M 41.9416,22.0881 V 21.1427 C 41.9416,9.36811 32.5735,0 21.0567,0 9.54,0 0,9.36811 0,21.1427 v 0.9454 c 6.10216,-4.5551 13.4076,-7.0476 21.0567,-7.0476 7.4773,0 14.7827,2.4925 20.8849,7.0476 z"
     class="logo-path"
     data-astro-cid-3ef6ksr2=""
     id="path3"
     style="fill:#000000" />
</svg>

<svg width="111" height="39" viewBox="0 0 111 39" fill="none" xmlns="http://www.w3.org/2000/svg" class="lg:h-12 h-8 w-[111px] logo-text-svg" data-astro-cid-3ef6ksr2=""> <g class="logo-text" data-astro-cid-3ef6ksr2=""> <path d="M61.0852 34.0347C65.1799 34.0347 66.4161 33.4166 68.6566 30.6353C68.6566 32.2568 69.971 33.5712 71.5924 33.5712H74.5282V8.92572H68.3475V22.6777C68.3475 26.6952 66.2615 29.0129 63.0167 29.0129C60.0036 29.0129 58.8447 27.3132 58.8447 23.9911V8.92572H52.6641V25.2272C52.7413 31.1762 55.5226 34.0347 61.0852 34.0347Z" class="logo-path" data-astro-cid-3ef6ksr2=""></path> <path d="M92.2982 8.4635H90.8015C87.4022 8.4635 84.8955 10.2354 83.8912 13.0167V8.92204H78.0195V27.3868C78.0195 30.8003 80.7867 33.5675 84.2002 33.5675V20.279C84.2002 15.0994 86.5955 13.4803 90.2838 13.4803L92.2982 8.4635Z" class="logo-path" data-astro-cid-3ef6ksr2=""></path> <path d="M99.2455 8.46326L95.2596 8.46313L93.2377 13.4755C93.2377 13.4755 104.032 12.297 104.032 16.3145V16.8553C103.955 18.0142 103.183 18.6322 100.865 18.7867L96.6156 19.2503C90.4349 19.7139 88.1172 22.7269 88.1172 26.5126C88.1172 31.0708 91.2075 34.0067 97.0019 34.0067C101.019 34.0067 102.719 33.5431 104.032 31.0709C104.11 30.9936 104.187 30.8391 104.264 30.6846C104.264 32.2633 105.544 33.5431 107.123 33.5431H110.136V17.3961C110.213 12.3743 106.817 8.54052 99.2455 8.46326ZM104.032 23.1905C104.032 26.7444 101.869 29.6802 98.0835 29.6802C94.9159 29.6802 93.5253 28.2123 93.5253 25.9718C93.5253 24.1948 94.7614 22.8814 97.8518 22.6497L100.788 22.4179C102.487 22.2634 103.569 21.9543 104.032 21.4908V23.1905Z" class="logo-path" data-astro-cid-3ef6ksr2=""></path> </g> </svg>
